X: 3428
T: The FOUR MARYS
%R: waltz
B: James Kerr "Merry Melodies" v.3 p.48 #428
Z: 2016 John Chambers <jc:trillian.mit.edu>
M: 3/4
L: 1/4
K: G
G |\
(B2A) | GBd | e3 | d2G |\
B2B | dcB | A3- | Azd |\
g2g | fdB | e2e | dGA |\
BdB | AGA | G3- | Gz :|

%%sep 1 1 500
%%sep 1 1 500

